dist/images/5_noticias.svg

<svg id="Layer_1" xmlns="http://www.w3.org/2000/svg" viewBox="0 0 10 10"><style>.st0{fill:#f8f9fa}</style><title>Icons</title><path class="st0" d="M6.5 3.4h-2c-.1 0-.2.1-.2.2s.1.2.2.2h2.1c.1 0 .2-.1.2-.2-.1-.2-.2-.2-.3-.2zM7.3 5H4.5c-.1 0-.2 0-.2.1s.1.2.2.2h2.9c.1 0 .2-.1.2-.2-.1-.1-.2-.1-.3-.1z"/><path class="st0" d="M7.9 1.3h-4c-.6 0-1.1.5-1.1 1.1v2.4h-.7c-.6-.1-1.1.4-1.1 1v1.8c0 .6.5 1.1 1.1 1.1h5.6c.7 0 1.3-.6 1.3-1.3v-5c0-.6-.5-1.1-1.1-1.1zM2.8 7.6c0 .4-.3.8-.8.8-.3 0-.7-.4-.7-.8V5.8c0-.4.4-.8.8-.8h.8l-.1 2.6zm5.9-.2c0 .5-.4 1-1 1H2.8l.1-.1c.1-.2.2-.4.2-.6V2.4c0-.4.3-.8.8-.8h4c.4 0 .8.3.8.8v5z"/><path class="st0" d="M6.5 6.4h-2c-.1 0-.2.1-.2.2s.1.2.2.2h2.1c.1 0 .2-.1.2-.2-.1-.1-.2-.2-.3-.2z"/></svg>

<?xml version="1.0" encoding="utf-8"?>
<!-- Generator: Adobe Illustrator 21.1.0, SVG Export Plug-In . SVG Version: 6.00 Build 0)  -->
<svg version="1.1" id="Layer_1" xmlns="http://www.w3.org/2000/svg" xmlns:xlink="http://www.w3.org/1999/xlink" x="0px" y="0px"
	 viewBox="0 0 10 10" style="enable-background:new 0 0 10 10;" xml:space="preserve">
<style type="text/css">
	.st0{fill:#F8F9FA;}
</style>
<title>Icons</title>
<path class="st0" d="M6.5,3.4H4.5c-0.1,0-0.2,0.1-0.2,0.2s0.1,0.2,0.2,0.2c0,0,0,0,0,0h2.1c0.1,0,0.2-0.1,0.2-0.2
	C6.7,3.4,6.6,3.4,6.5,3.4z"/>
<path class="st0" d="M7.3,5H4.5C4.4,5,4.3,5,4.3,5.1c0,0.1,0.1,0.2,0.2,0.2h2.9c0.1,0,0.2-0.1,0.2-0.2C7.5,5,7.4,5,7.3,5z"/>
<path class="st0" d="M7.9,1.3h-4c-0.6,0-1.1,0.5-1.1,1.1v2.4H2.1C1.5,4.7,1,5.2,1,5.8v1.8c0,0.6,0.5,1.1,1.1,1.1h5.6
	C8.4,8.7,9,8.1,9,7.4v-5C9,1.8,8.5,1.3,7.9,1.3z M2.8,7.6c0,0.4-0.3,0.8-0.8,0.8C1.7,8.4,1.3,8,1.3,7.6V5.8C1.3,5.4,1.7,5,2.1,5h0.8
	L2.8,7.6z M8.7,7.4c0,0.5-0.4,1-1,1H2.8l0.1-0.1c0.1-0.2,0.2-0.4,0.2-0.6V2.4c0-0.4,0.3-0.8,0.8-0.8h4c0.4,0,0.8,0.3,0.8,0.8V7.4z"
	/>
<path class="st0" d="M6.5,6.4H4.5c-0.1,0-0.2,0.1-0.2,0.2c0,0.1,0.1,0.2,0.2,0.2h2.1c0.1,0,0.2-0.1,0.2-0.2C6.7,6.5,6.6,6.4,6.5,6.4
	z"/>
</svg>
